Hatter-kde/actions/24/tool_color_eraser.svg

<svg xmlns="http://www.w3.org/2000/svg" viewBox="0 0 24 24">
  <defs id="defs3051">
    <style type="text/css" id="current-color-scheme">
      .ColorScheme-Text {
        color:#363636;
      }
      .ColorScheme-Highlight {
        color:#3daee9;
      }
      </style>
  </defs><g transform="translate(1,1)">
 <path 
     style="fill:currentColor;fill-opacity:1;stroke:none" 
     d="M 15 3 L 7 11 L 11 15 L 19 7 L 15 3 z M 17.5 11 C 17.013545 12.7025 15.8218 14.166091 15.296875 15.337891 C 15.113175 15.686291 15 16.0773 15 16.5 C 15 17.885 16.115 19 17.5 19 C 18.885 19 20 17.885 20 16.5 C 20 16.0773 19.886825 15.686291 19.703125 15.337891 C 19.1782 14.166091 17.98645 12.7025 17.5 11 z M 5 13 L 3 15 L 7 19 L 9 17 L 5 13 z "
     class="ColorScheme-Text"
     />
</g></svg>

<?xml version="1.0" encoding="UTF-8"?>
<svg viewBox="0 0 24 24" xmlns="http://www.w3.org/2000/svg">
 <defs id="defs3051">
  <style id="current-color-scheme" type="text/css">.ColorScheme-Text {
        color:#363636;
      }
      .ColorScheme-Highlight {
        color:#3daee9;
      }</style>
 </defs>
 <g transform="translate(1,1)">
  <path class="ColorScheme-Text" d="m15 3-8 8 4 4 8-8-4-4zm2.5 8c-0.48646 1.7025-1.6782 3.1661-2.2031 4.3379-0.1837 0.3484-0.29688 0.73941-0.29688 1.1621 0 1.385 1.115 2.5 2.5 2.5s2.5-1.115 2.5-2.5c0-0.4227-0.11318-0.81371-0.29688-1.1621-0.52492-1.1718-1.7167-2.6354-2.2031-4.3379zm-12.5 2-2 2 4 4 2-2-4-4z" fill="currentColor"/>
 </g>
</svg>
